X: 33132
T: Princess Elisa Bonaparte's
R: waltz
M: 3/4
K: Amajor
E2|cB A2 A2|AG F2 F2|GABcdB|ceAEAB|
cB A2 A2|AG F2 F2|GABcdB|A2 z2:|
|:e2|dB G2 E2|ec A2 e2|dB G2 E2|ec A2 e2|
edcBAG|AG F2 F2|GABcdB|A2 z2:|
[K:A minor]
|:c2|e4 a2|e4 gf|e4 d2|cB A2 e2|
e4 a2|e4 gf|e4 ^G2|A2 z2:|
|:G2|c2 e2 g2|fedcBA|G2 d2 f2|ed c2 e2|
e4 gf|e4 c2|B2 d2 ^G2|A2 z2:|
[K:A major]
E2|cB A2 A2|AG F2 F2|GABcdB|ceAEAB|
cB A2 A2|AG F2 F2|GABcdB|A2 z2 e2|
dB G2 E2|ec A2 e2|dB G2 E2|ec A2 e2|
edcBAG|AG F2 F2|GABcdB|A2 z2||

